suite-common/icons/assets/icons/trendUpThin.svg

<svg xmlns="http://www.w3.org/2000/svg" viewBox="0 0 32 32">
  <path fill-rule="evenodd" d="M20.862 6.822c-.283.027-.359.056-.467.181-.174.202-.171.478.008.712l.136.178 3.05.003c1.678.002 3.147.022 3.264.045l.214.041-5.037 5.047-5.037 5.048-2.163-2.149c-1.288-1.279-2.268-2.209-2.421-2.299-.251-.147-.263-.149-.44-.064-.204.097-5.247 5.083-7.55 7.465-1.547 1.599-1.573 1.635-1.425 1.92.083.162.319.352.439.355.055.001.223-.087.373-.195.151-.109 2.086-2.003 4.301-4.21l4.026-4.011 2.225 2.206c1.223 1.214 2.3 2.246 2.392 2.293a.48.48 0 0 0 .297.055c.177-.044 1.02-.866 6.325-6.158l4.571-4.562.015 3.291c.015 3.228.017 3.292.124 3.398a.6.6 0 0 0 .613.141c.358-.116.343.06.361-4.401l.015-4.022-.173-.178-.172-.179-3.763.008c-2.07.005-3.915.023-4.101.041"/>
</svg>

<svg xmlns="http://www.w3.org/2000/svg" viewBox="0 0 32 32"><path d="M20.862 6.822 C 20.579 6.849,20.503 6.878,20.395 7.003 C 20.221 7.205,20.224 7.481,20.403 7.715 L 20.539 7.893 23.589 7.896 C 25.267 7.898,26.736 7.918,26.853 7.941 L 27.067 7.982 22.030 13.029 L 16.993 18.077 14.830 15.928 C 13.542 14.649,12.562 13.719,12.409 13.629 C 12.158 13.482,12.146 13.480,11.969 13.565 C 11.765 13.662,6.722 18.648,4.419 21.030 C 2.872 22.629,2.846 22.665,2.994 22.950 C 3.077 23.112,3.313 23.302,3.433 23.305 C 3.488 23.306,3.656 23.218,3.806 23.110 C 3.957 23.001,5.892 21.107,8.107 18.900 L 12.133 14.889 14.358 17.095 C 15.581 18.309,16.658 19.341,16.750 19.388 C 16.848 19.439,16.972 19.462,17.047 19.443 C 17.224 19.399,18.067 18.577,23.372 13.285 L 27.943 8.723 27.958 12.014 C 27.973 15.242,27.975 15.306,28.082 15.412 C 28.239 15.569,28.476 15.624,28.695 15.553 C 29.053 15.437,29.038 15.613,29.056 11.152 L 29.071 7.130 28.898 6.952 L 28.726 6.773 24.963 6.781 C 22.893 6.786,21.048 6.804,20.862 6.822 " stroke="none" fill-rule="evenodd" fill="black"></path></svg>
